src/assets/icons/aerolab-logo-2.svg

<svg width="48" height="48" viewBox="0 0 48 48" fill="none" xmlns="http://www.w3.org/2000/svg">
<path fill-rule="evenodd" clip-rule="evenodd" d="M35.8682 6.40455C35.6406 6.01773 35.1363 5.8851 34.7422 6.10853L21.2482 13.7547C20.9412 13.9288 20.7817 14.2765 20.8529 14.6176L25.3943 36.3988C25.4161 36.5037 25.3708 36.6586 25.3021 36.7346L24.7503 37.3454C23.6032 38.6151 22.6315 39.303 20.7844 39.303C18.7134 39.303 17.741 38.2316 16.2013 36.3378C14.3625 34.0764 12.0744 31.262 6.51136 31.262H6.3738C5.61508 31.262 5 31.8657 5 32.6104C5 33.355 5.61508 33.9587 6.3738 33.9587H6.51136C10.7515 33.9587 12.3553 35.9313 14.0536 38.0198C15.5704 39.8855 17.2897 42 20.7844 42C23.8014 42 25.4616 40.6227 26.8061 39.1346L31.7657 33.6457C31.7657 33.6454 43.5617 20.5895 43.5617 20.5895C43.797 20.329 43.8362 19.95 43.6588 19.6483L35.8682 6.40455Z" fill="url(#paint0_linear_497_3827)"/>
<defs>
<linearGradient id="paint0_linear_497_3827" x1="24.3846" y1="6" x2="24.3846" y2="42" gradientUnits="userSpaceOnUse">
<stop stop-color="#FF8800"/>
<stop offset="1" stop-color="#FF6600"/>
</linearGradient>
</defs>
</svg>

<svg xmlns="http://www.w3.org/2000/svg" width="48" height="48" fill="none"><path fill="url(#a)" fill-rule="evenodd" d="M35.868 6.405a.833.833 0 0 0-1.126-.296l-13.494 7.646a.8.8 0 0 0-.395.863l4.541 21.78a.44.44 0 0 1-.092.337l-.552.61c-1.147 1.27-2.119 1.958-3.966 1.958-2.07 0-3.043-1.071-4.583-2.965-1.838-2.262-4.127-5.076-9.69-5.076h-.137c-.759 0-1.374.604-1.374 1.348s.615 1.349 1.374 1.349h.137c4.24 0 5.844 1.972 7.543 4.06C15.57 39.887 17.29 42 20.784 42c3.017 0 4.678-1.377 6.022-2.865l4.96-5.49L43.562 20.59a.8.8 0 0 0 .097-.94z" clip-rule="evenodd"/><defs><linearGradient id="a" x1="24.385" x2="24.385" y1="6" y2="42" gradientUnits="userSpaceOnUse"><stop stop-color="#F80"/><stop offset="1" stop-color="#F60"/></linearGradient></defs></svg>
